icons/src/svg/doner.svg

<svg width="32" height="32" viewBox="0 0 32 32" fill="none" xmlns="http://www.w3.org/2000/svg">
<path fill-rule="evenodd" clip-rule="evenodd" d="M3.98047 7.00781C3.98047 6.45553 4.42818 6.00781 4.98047 6.00781H27.0182C27.5705 6.00781 28.0182 6.45553 28.0182 7.00781C28.0182 7.5601 27.5705 8.00781 27.0182 8.00781H4.98047C4.42818 8.00781 3.98047 7.5601 3.98047 7.00781Z" fill="#0D0F13"/>
<path fill-rule="evenodd" clip-rule="evenodd" d="M9.00635 16.0176C9.00635 15.4653 9.45406 15.0176 10.0063 15.0176H21.9927C22.5449 15.0176 22.9927 15.4653 22.9927 16.0176C22.9927 16.5699 22.5449 17.0176 21.9927 17.0176H10.0063C9.45406 17.0176 9.00635 16.5699 9.00635 16.0176Z" fill="#0D0F13"/>
<path fill-rule="evenodd" clip-rule="evenodd" d="M11.9756 25C11.9756 24.4477 12.4233 24 12.9756 24H19.0233C19.5756 24 20.0233 24.4477 20.0233 25C20.0233 25.5523 19.5756 26 19.0233 26H12.9756C12.4233 26 11.9756 25.5523 11.9756 25Z" fill="#0D0F13"/>
</svg>

<svg fill="none" xmlns="http://www.w3.org/2000/svg" viewBox="0 0 32 32">
  <path fill-rule="evenodd" clip-rule="evenodd" d="M3.981 7.007a1 1 0 0 1 1-1H27.02a1 1 0 1 1 0 2H4.98a1 1 0 0 1-1-1ZM9.007 16.017a1 1 0 0 1 1-1h11.986a1 1 0 0 1 0 2H10.007a1 1 0 0 1-1-1ZM11.976 24.999a1 1 0 0 1 1-1h6.048a1 1 0 1 1 0 2h-6.048a1 1 0 0 1-1-1Z" fill="currentColor"/>
</svg>
